X:1
T:Title
%%score { 1 | 2 }
L:1/8
M:3/4
K:D
V:1 treble nm="Grand Piano"
V:2 bass 
V:1
 z2 z z/[Q:1/4=92] D/ D>F | [FA]3 [FA] [GB]>[FA] | [FA] [Fd]2 z/ D/ D>F | %3
 [FA]3 [FA] (3[GB]A[A,DF] |[M:7/16] [A,CE]/-[A,CE]/-[A,CE]-<[A,CE] z/ | %5
[M:5/16][K:bass] [F,D]<[F,D][K:treble][A,F]/ |[M:3/4] [A,FA]3 [DFA] [DGB]>[DFA] | %7
[M:7/8] [DGB] d3 z/ d/ c>B |[M:3/4] A3 F [CE]>[CF] |[M:7/16] D/-D/-D-<D z/ |[M:5/16] d<dd/ | %11
[M:3/4] d3 [FA]/[FA]/ [DGB]>[Gc] | [Ge] [Fd]3 (3[Bd][Bd]B | A3 B A>F | %14
[M:7/16] [CE]/-[CE]/-[CE]-<[CE] z/ |[M:5/16] D<DF/ |[M:3/4] [FA]3 [FA] [GB]>[FA] | %17
[M:7/8] B d3 z d/dB/ |[M:3/4] A3 F [CE]>[CF] |[M:7/16] D/-D/-D-<D z/ |] %20
V:2
 z2 z z/ [D,F,]/ [D,F,]>[D,A,] | [D,A,]3 [D,D] [D,D]>[D,D] | %2
 [D,D] [D,A,]2 z/ [D,F,]/ [D,F,]>[D,A,] | [D,A,]3 [D,D] (3[D,D]-[D,DF]D, | %4
[M:7/16] A,,/-A,,/-A,,-<A,, z/ |[M:5/16] D,<D,D,/ |[M:3/4] D,3 D, D,>D, | %7
[M:7/8] G,, [G,,B,DG]3 z/[K:treble] [G,B,D]/ [G,CD]>[G,D] | %8
[M:3/4] [A,DF]3 [A,D][K:bass] [A,,G,]>[A,,A,] |[M:7/16] [D,F,]/-[D,F,]/-[D,F,]-<[D,F,] z/ | %10
[M:5/16] [D,D]<[D,D][D,D]/ |[M:3/4] [D,D]3 [D,D]/[D,D]/ G,,>[A,,A,] | %12
 [D,A,] [D,A,]3 (3G,[G,B,][G,DG] | [F,A,D]3 [G,D] [F,D]>[D,A,D] | %14
[M:7/16] [A,,A,]/-[A,,A,]/-[A,,A,]-<[A,,A,] z/ |[M:5/16] [D,F,]<[D,F,][D,A,]/ | %16
[M:3/4] [D,A,]3 [D,A,] [D,D]>[D,D] |[M:7/8][K:treble] [G,DG] [G,B,D]3 z [^G,B,D]/[G,B,E][G,D=F]/ | %18
[M:3/4] [A,DF]3[K:bass] [A,D] [A,,G,]>[A,,A,] |[M:7/16] [D,F,]/-[D,F,]/-[D,F,]-<[D,F,] z/ |] %20

